X: 12794
T: Fear No Darkness
R: slip jig
M: 9/8
K: Dmajor
c|:d3/2A/d eAe fdd|g3/2d/g f3/2d/f edd|b3/2g/b a3/2d/g fga|agf fed e3/2f/e:|
|:d3/2e/A AFA BAF|A3/2B/A ABd efd|f3/2d/d def ede|e3/2f/d cde e3/2d/c:|

